X:1
T: Miss Hopkins' Reel
C:William Marshall
R:Reel
Q: 232
K:Bb
M:4/4
L:1/8
|:FG Bd e2 eg|fd cB cB GB|FG Bd e2 eg|fd cd B1/2B1/2B B2|
FG Bd e2 eg|fd cB cB GB|FG Bd e2 eg|fd cd B1/2B1/2B B2|
ga ba gf ed|cB cd BG GB|ga ba gf ed|cB cd B1/2B1/2B B2|
ga ba gf ed|cB cd BG GB|FG Bc de fg|fd cd B1/2B1/2B B2:|
